X: 34963
T: Rocky Road To Mount Collins, The
R: polka
M: 2/4
K: Amajor
E2 FE|A2 AB|cA Bc|BA F2|
E2 FE|A2 AB|cA Bc|BA A2:|
|:ce ec/e/|fe (3cBA|ce eA|cB B2|
ce ec/e/|fe (3cBA|ce Bc|BA A2:|

